src/lib/packages/icons/src/assets/filled/file-ban.svg

<svg xmlns="http://www.w3.org/2000/svg" width="24" height="24" fill="none"><path fill="currentColor" d="M14.75 6V3.75l4.5 4.5H17c-1.58 0-2.25-.67-2.25-2.25Zm-2.25 5.75a2.753 2.753 0 0 0-2.75 2.75c0 .485.137.935.358 1.331l3.723-3.722a2.711 2.711 0 0 0-1.331-.359Zm7.5-2V18c0 2-1 3-3 3H8c-2 0-3-1-3-3V6c0-2 1-3 3-3h5.25v3c0 2.42 1.33 3.75 3.75 3.75h3Zm-3.25 4.75a4.254 4.254 0 0 0-4.25-4.25 4.254 4.254 0 0 0-4.25 4.25 4.254 4.254 0 0 0 4.25 4.25 4.254 4.254 0 0 0 4.25-4.25Zm-5.581 2.391c.396.221.846.359 1.331.359a2.753 2.753 0 0 0 2.75-2.75 2.72 2.72 0 0 0-.358-1.331l-3.723 3.722Z"/></svg>

<svg width="24" height="24" viewBox="0 0 24 24" fill="none" xmlns="http://www.w3.org/2000/svg">
<path d="M14.75 6V3.75L19.25 8.25H17C15.42 8.25 14.75 7.58 14.75 6ZM12.5 11.75C10.983 11.75 9.75 12.984 9.75 14.5C9.75 14.985 9.88691 15.435 10.1079 15.831L13.8311 12.109C13.4351 11.887 12.985 11.75 12.5 11.75ZM20 9.75V18C20 20 19 21 17 21H8C6 21 5 20 5 18V6C5 4 6 3 8 3H13.25V6C13.25 8.42 14.58 9.75 17 9.75H20ZM16.75 14.5C16.75 12.156 14.844 10.25 12.5 10.25C10.156 10.25 8.25 12.156 8.25 14.5C8.25 16.844 10.156 18.75 12.5 18.75C14.844 18.75 16.75 16.844 16.75 14.5ZM11.1689 16.891C11.5649 17.112 12.015 17.25 12.5 17.25C14.017 17.25 15.25 16.016 15.25 14.5C15.25 14.015 15.1131 13.565 14.8921 13.169L11.1689 16.891Z" fill="currentColor"/>
</svg>
